src/public/images/snowshowersandthunder_day.svg

<svg viewBox="0 0 100 100" xmlns="http://www.w3.org/2000/svg" xmlns:xlink="http://www.w3.org/1999/xlink"><symbol id="d"><path fill="#47c0e3" d="M11.68 4.47H8.85L10.27 2A1.35 1.35 0 1 0 7.93.67L6.51 3.12 5.1.67A1.35 1.35 0 0 0 3.26.18 1.35 1.35 0 0 0 2.76 2l1.42 2.47H1.35a1.35 1.35 0 1 0 0 2.7h2.83L2.76 9.62a1.35 1.35 0 0 0 .49 1.84A1.39 1.39 0 0 0 5.1 11l1.41-2.48L7.93 11a1.35 1.35 0 1 0 2.34-1.35L8.85 7.17h2.83a1.35 1.35 0 1 0 0-2.7z"/></symbol><symbol id="c"><path fill="#ffdd15" d="m19.6 23.42-6.86-3.03L15.55 5 5 24.49l7.08 3.02L7.49 45 19.6 23.42z"/></symbol><symbol id="b"><path d="M55.7 5a23.94 23.94 0 0 0-21.33 13.05 9.9 9.9 0 0 0-12.78 5.56 15 15 0 0 0-1.71-.1A14.81 14.81 0 0 0 9.2 28 14.63 14.63 0 0 0 5 38.17v.21a14.83 14.83 0 0 0 14.88 14.68h55.71a14.3 14.3 0 0 0 3.67-28.14A23.93 23.93 0 0 0 55.7 5z"/><image x="5" y="14" width="85" height="43" xlink:href="data:image/png;base64,iVBORw0KGgoAAAANSUhEUgAAAFYAAAAkCAMAAAAkYj0PAAAABGdBTUEAALGPC/xhBQAAAAFzUkdCAK7OHOkAAAAVUExURSgoKExpcaCgoFBQUG5ublBQUISEhI1fsT0AAAAHdFJOUxsACBsPFRpGXuFgAAABWElEQVRIx7XV25bDIAgF0BMu/v8nF/E+iWlqHNKVN3cpIMXxL4GFM3SQfTazkUyxk63oLYwlVSy2silXkS/wUrZS2a3ZCn1zsdSw7UUYijuHsTa1IvfwWrbSXLkc4N9r27JViwmM1UtWXA3hohQ41m6vl8FQZi7wu2z7KXPW4uRiZS+2AmdXN7DdQEQWQHYHlt6z0dXBBa2xeeVktiZc1jDoF5eGkI4d4MjKc7cNbZ3bqjocLLx5oPDYTaIftcfvAvcs2GFxVsJTOP1wO1jGdUSLaz/DWA1Tl45+Tkqul2ArcPzayGq8JafOUffP3TUp6JQs+Rptc6vtmtBkUw+dv0NzWG0PYf8O7Ym09+ITXyXOPZqEX95aFe3PKxRsL2XV3HR+ZALirPSF0ceHp6F51WBv1A22VaW2GHWzWvat8LOAPf4CrjrA+neNK7+PQBf/DmmLrId09/QDWyESBsibwBUAAAAASUVORK5CYII="/></symbol><symbol id="i"><g mask="url(#a)"><use xlink:href="#b" fill="#b2b2b2" width="100" height="100" transform="translate(3 18)"/></g><use xlink:href="#c" width="100" height="100" transform="translate(37 51)"/><use xlink:href="#d" width="100" height="100" transform="translate(26 79)"/><use xlink:href="#d" width="100" height="100" transform="translate(52 88)"/><use xlink:href="#d" width="100" height="100" transform="translate(66 79)"/></symbol><symbol id="h"><path class="sun-glow" fill="url(#e)" d="M66.64 47.86 82 41l-15.36-6.88 9.84-13.66-16.72 1.76 1.7-16.75-13.6 9.89L41 0l-6.88 15.36-13.66-9.84 1.76 16.72-16.75-1.7 9.89 13.6L0 41l15.36 6.83-9.84 13.71 16.72-1.76-1.7 16.75 13.6-9.89L41 82l6.83-15.36 13.66 9.84-1.71-16.72 16.75 1.69z"/><path class="sun-outer" fill="#ffd348" d="M19.28 53.5a25 25 0 1 0 9.15-34.16 25 25 0 0 0-9.15 34.16z"/><path class="sun-inner" fill="url(#f)" d="M22.74 51.5a21 21 0 1 0 7.69-28.69 21 21 0 0 0-7.69 28.69z"/></symbol><defs><mask id="g"><path fill="#fff" d="M0 0h100v100H0z"/><use xlink:href="#b" stroke="#000" stroke-linejoin="round" stroke-width="10" width="100" height="100" transform="translate(3 18)"/></mask><mask id="a"><path fill="#fff" d="M0 0h100v100H0z"/><use xlink:href="#c" stroke="#000" stroke-linejoin="round" stroke-width="8" width="100" height="100" transform="translate(37 51)"/></mask><radialGradient id="e" cx="41" cy="41" r="41" gradientUnits="userSpaceOnUse"><stop offset="54%" stop-color="#d6b849"/><stop offset="67%" stop-color="#ffce47"/><stop offset="100%" stop-color="#ffdb73"/></radialGradient><linearGradient id="f" x1="0%" y1="0%" x2="100%" y2="100%"><stop offset="0%" stop-color="#ffaf22"/><stop offset="100%" stop-color="#f09900"/></linearGradient></defs><symbol id="j"><g mask="url(#g)"><use xlink:href="#h" width="100" height="100" transform="matrix(.7 0 0 .7 0 2)"/></g><use xlink:href="#i" width="100" height="100"/></symbol><use xlink:href="#j" width="100" height="100"/></svg>

<svg x="0" y="0" viewBox="0 0 100 100" xmlns="http://www.w3.org/2000/svg" xmlns:xlink="http://www.w3.org/1999/xlink">
  <symbol id="snowflake">
    <path fill="#47c0e3" d="M11.68,4.47H8.85L10.27,2A1.35,1.35,0,1,0,7.93.67L6.51,3.12,5.1.67A1.35,1.35,0,0,0,3.26.18,1.35,1.35,0,0,0,2.76,2L4.18,4.47H1.35a1.35,1.35,0,1,0,0,2.7H4.18L2.76,9.62a1.35,1.35,0,0,0,.49,1.84A1.39,1.39,0,0,0,5.1,11L6.51,8.52,7.93,11a1.35,1.35,0,1,0,2.34-1.35L8.85,7.17h2.83a1.35,1.35,0,1,0,0-2.7Z"></path>
  </symbol>
  <symbol id="lightning">
    <polygon fill="#ffdd15" points="19.6 23.42 12.74 20.39 15.55 5 5 24.49 12.08 27.51 7.49 45 19.6 23.42"></polygon>
  </symbol>
  <symbol id="cloud">
    <path d="M55.7,5A23.94,23.94,0,0,0,34.37,18.05a9.9,9.9,0,0,0-12.78,5.56,15,15,0,0,0-1.71-.1A14.81,14.81,0,0,0,9.2,28,14.63,14.63,0,0,0,5,38.17v.21A14.83,14.83,0,0,0,19.88,53.06H75.59a14.3,14.3,0,0,0,3.67-28.14A23.93,23.93,0,0,0,55.7,5Z"></path>
    <image x="5" y="14" width="85" height="43" xlink:href="data:image/png;base64,iVBORw0KGgoAAAANSUhEUgAAAFYAAAAkCAMAAAAkYj0PAAAABGdBTUEAALGPC/xhBQAAAAFzUkdCAK7OHOkAAAAVUExURSgoKExpcaCgoFBQUG5ublBQUISEhI1fsT0AAAAHdFJOUxsACBsPFRpGXuFgAAABWElEQVRIx7XV25bDIAgF0BMu/v8nF/E+iWlqHNKVN3cpIMXxL4GFM3SQfTazkUyxk63oLYwlVSy2silXkS/wUrZS2a3ZCn1zsdSw7UUYijuHsTa1IvfwWrbSXLkc4N9r27JViwmM1UtWXA3hohQ41m6vl8FQZi7wu2z7KXPW4uRiZS+2AmdXN7DdQEQWQHYHlt6z0dXBBa2xeeVktiZc1jDoF5eGkI4d4MjKc7cNbZ3bqjocLLx5oPDYTaIftcfvAvcs2GFxVsJTOP1wO1jGdUSLaz/DWA1Tl45+Tkqul2ArcPzayGq8JafOUffP3TUp6JQs+Rptc6vtmtBkUw+dv0NzWG0PYf8O7Ym09+ITXyXOPZqEX95aFe3PKxRsL2XV3HR+ZALirPSF0ceHp6F51WBv1A22VaW2GHWzWvat8LOAPf4CrjrA+neNK7+PQBf/DmmLrId09/QDWyESBsibwBUAAAAASUVORK5CYII="></image>
  </symbol>
  <symbol id="s14">
    <g mask="url(#lightning_37_51_1_1_4)">
      <use xlink:href="#cloud" fill="#b2b2b2" x="0" y="0" width="100" height="100" transform="translate(3,18) scale(1,1)"></use>
    </g>
    <use xlink:href="#lightning"  x="0" y="0" width="100" height="100" transform="translate(37,51) scale(1,1)"></use>
    <use xlink:href="#snowflake"  x="0" y="0" width="100" height="100" transform="translate(26,79) scale(1,1)"></use>
    <use xlink:href="#snowflake"  x="0" y="0" width="100" height="100" transform="translate(52,88) scale(1,1)"></use>
    <use xlink:href="#snowflake"  x="0" y="0" width="100" height="100" transform="translate(66,79) scale(1,1)"></use>
  </symbol>
  <symbol id="sun">
    <path class="sun-glow" fill="url(#sun-glow-grad)" d="M66.64,47.86,82,41,66.64,34.12l9.84-13.66L59.76,22.22,61.46,5.47l-13.6,9.89L41,0,34.12,15.36,20.46,5.52l1.76,16.72L5.47,20.54l9.89,13.6L0,41l15.36,6.83L5.52,61.54l16.72-1.76L20.54,76.53l13.6-9.89L41,82l6.83-15.36,13.66,9.84L59.78,59.76l16.75,1.69Z"></path>
    <path class="sun-outer" fill="#ffd348" d="M19.28,53.5a25,25,0,1,0,9.15-34.16A25,25,0,0,0,19.28,53.5Z"></path>
    <path class="sun-inner" fill="url(#sun-inner-grad)" d="M22.74,51.5a21,21,0,1,0,7.69-28.69A21,21,0,0,0,22.74,51.5Z"></path>
  </symbol>

  <defs>
    <mask id="cloud_3_18_1_1_5">
    <rect x="0" y="0" width="100" height="100" fill="white"></rect>
    <use xlink:href="#cloud" fill="black" stroke="black" stroke-linejoin="round" stroke-width="10" x="0" y="0" width="100" height="100" transform="translate(3,18) scale(1,1)"></use>
  </mask>
    <radialGradient id="sun-glow-grad" cx="41" cy="41" r="41" gradientUnits="userSpaceOnUse">
      <stop offset="54%" stop-color="#d6b849"/>
      <stop offset="67%" stop-color="#ffce47"/>
      <stop offset="100%" stop-color="#ffdb73"/>
    </radialGradient>
    <linearGradient id="sun-inner-grad" x1="0%" y1="0%" x2="100%" y2="100%">
      <stop offset="0%" stop-color="#ffaf22" />
      <stop offset="100%" stop-color="#f09900" />
    </linearGradient>
    <mask id="lightning_37_51_1_1_4">
    <rect x="0" y="0" width="100" height="100" fill="white"></rect>
    <use xlink:href="#lightning" fill="black" stroke="black" stroke-linejoin="round" stroke-width="8" x="0" y="0" width="100" height="100" transform="translate(37,51) scale(1,1)"></use>
  </mask>
  </defs>
  <symbol id="s21d">
    <g mask="url(#cloud_3_18_1_1_5)">
      <use xlink:href="#sun"  x="0" y="0" width="100" height="100" transform="translate(0,2) scale(0.7,0.7)"></use>
    </g>
    <use xlink:href="#s14" x="0" y="0" width="100" height="100"></use>
  </symbol>
  <use xlink:href="#s21d" x="0" y="0" width="100" height="100"></use>
</svg>
